src/cmd/sc_sortascending.svg

<svg viewBox="0 0 16 16" xmlns="http://www.w3.org/2000/svg"><path d="m10 4v8.09375l-2.28125-2.28125-.71875.6875 3.28125 3.3125.21875.1875.21875-.1875 3.28125-3.3125-.71875-.6875-2.28125 2.28125v-8.09375zm-7.6875 5.1875v.8125h2.0625l-2.1875 3.25v.75h3.8125v-.875h-2.21875l2.15625-3.28125v-.65625z" fill="#232629"/><path d="m4.09375 2c-.78324.0182-1.37534.14339-1.8125.34375l.25.90625c.20947-.0729 1.00427-.3125 1.46875-.3125h.0625c.64663.0273.6875.25695.6875.8125v.21875l-.34375.0625c-1.56649.22768-2.40625.42281-2.40625 1.625 0 .83789.61657 1.34375 1.5 1.34375.6102 0 .99642-.24767 1.40625-.59375l.125.5h.96875v-3.375c0-1.02914-.7196-1.53125-1.8125-1.53125zm.65625 2.6875v1.125c-.33697.2277-.59409.375-1.03125.375-.39162 0-.59375-.24767-.59375-.59375 0-.65574.57997-.77482 1.28125-.875z" fill="#762572"/></svg>

<?xml version="1.0" encoding="UTF-8" standalone="no"?>
<svg
   xmlns:dc="http://purl.org/dc/elements/1.1/"
   xmlns:cc="http://creativecommons.org/ns#"
   xmlns:rdf="http://www.w3.org/1999/02/22-rdf-syntax-ns#"
   xmlns:svg="http://www.w3.org/2000/svg"
   xmlns="http://www.w3.org/2000/svg"
   xmlns:sodipodi="http://sodipodi.sourceforge.net/DTD/sodipodi-0.dtd"
   xmlns:inkscape="http://www.inkscape.org/namespaces/inkscape"
   viewBox="0 0 16 16"
   version="1.1"
   id="svg6"
   sodipodi:docname="sc_sortascending.svg"
   inkscape:version="0.92.4 (5da689c313, 2019-01-14)"
   inkscape:export-filename="/home/jupiter007/Libreoffice yaru theme fullcolor/build/cmd/sc_sortascending.png"
   inkscape:export-xdpi="95"
   inkscape:export-ydpi="95">
  <metadata
     id="metadata12">
    <rdf:RDF>
      <cc:Work
         rdf:about="">
        <dc:format>image/svg+xml</dc:format>
        <dc:type
           rdf:resource="http://purl.org/dc/dcmitype/StillImage" />
      </cc:Work>
    </rdf:RDF>
  </metadata>
  <defs
     id="defs10" />
  <sodipodi:namedview
     pagecolor="#ffffff"
     bordercolor="#666666"
     borderopacity="1"
     objecttolerance="10"
     gridtolerance="10"
     guidetolerance="10"
     inkscape:pageopacity="0"
     inkscape:pageshadow="2"
     inkscape:window-width="1920"
     inkscape:window-height="1011"
     id="namedview8"
     showgrid="true"
     inkscape:zoom="41.7193"
     inkscape:cx="9.8361723"
     inkscape:cy="7.1771468"
     inkscape:window-x="0"
     inkscape:window-y="32"
     inkscape:window-maximized="1"
     inkscape:current-layer="svg6">
    <inkscape:grid
       type="xygrid"
       id="grid822" />
  </sodipodi:namedview>
  <path
     sodipodi:nodetypes="ccccccccccc"
     style="fill:#ffffff;stroke:#ffffff;stroke-width:2;stroke-miterlimit:4;stroke-dasharray:none;stroke-linejoin:round"
     inkscape:connector-curvature="0"
     id="path832"
     d="M 2.3125,9.1875 V 10 H 4.375 L 2.1875,13.25 V 14 H 6 V 13.125 H 3.78125 L 5.9375,9.84375 V 9.1875 Z" />
  <path
     id="path834"
     fill="#762572"
     d="m4.09375 2c-.78324.0182-1.37534.14339-1.8125.34375l.25.90625c.20947-.0729 1.00427-.3125 1.46875-.3125h.0625c.64663.0273.6875.25695.6875.8125v.21875l-.34375.0625c-1.56649.22768-2.40625.42281-2.40625 1.625 0 .83789.61657 1.34375 1.5 1.34375.6102 0 .99642-.24767 1.40625-.59375l.125.5h.96875v-3.375c0-1.02914-.7196-1.53125-1.8125-1.53125zm.65625 2.6875v1.125c-.33697.2277-.59409.375-1.03125.375-.39162 0-.59375-.24767-.59375-.59375 0-.65574.57997-.77482 1.28125-.875z"
     style="fill:#ffffff;stroke:#ffffff;stroke-width:2;stroke-miterlimit:4;stroke-dasharray:none;stroke-linejoin:round" />
  <path
     d="M 2.3125,9.1875 V 10 H 4.375 L 2.1875,13.25 V 14 H 6 V 13.125 H 3.78125 L 5.9375,9.84375 V 9.1875 Z"
     id="path2"
     inkscape:connector-curvature="0"
     style="fill:#232629"
     sodipodi:nodetypes="ccccccccccc" />
  <path
     d="m4.09375 2c-.78324.0182-1.37534.14339-1.8125.34375l.25.90625c.20947-.0729 1.00427-.3125 1.46875-.3125h.0625c.64663.0273.6875.25695.6875.8125v.21875l-.34375.0625c-1.56649.22768-2.40625.42281-2.40625 1.625 0 .83789.61657 1.34375 1.5 1.34375.6102 0 .99642-.24767 1.40625-.59375l.125.5h.96875v-3.375c0-1.02914-.7196-1.53125-1.8125-1.53125zm.65625 2.6875v1.125c-.33697.2277-.59409.375-1.03125.375-.39162 0-.59375-.24767-.59375-.59375 0-.65574.57997-.77482 1.28125-.875z"
     fill="#762572"
     id="path4" />
  <path
     inkscape:connector-curvature="0"
     id="path856"
     d="M 11,14 8.0000001,10 H 10 V 4 h 2 v 6 h 2 z"
     style="opacity:0.6;fill:#000000;fill-opacity:1;stroke:#000000;stroke-width:2;stroke-linecap:butt;stroke-linejoin:round;stroke-miterlimit:4;stroke-dasharray:none;stroke-opacity:1"
     sodipodi:nodetypes="cccccccc" />
  <path
     inkscape:connector-curvature="0"
     style="fill:#ffffff;fill-opacity:1;stroke:none;stroke-width:1px;stroke-linecap:butt;stroke-linejoin:miter;stroke-opacity:1"
     d="M 11,14 8.0000001,10 H 10 V 4 h 2 v 6 h 2 z"
     id="path834-1"
     sodipodi:nodetypes="cccccccc" />
</svg>
